!!!COM: the-rolling-stones
!!!OTL: time-is-on-my-side
!!!RNB: hooktheoryid: RZwxKWNVxed
**kern	**text
*clefG2	*
*k[b-]	*
*M4/4	*
=1	=1
4dd	F
8.cc	.
16dd	.
4cc	.
16dd	.
8cc	.
[16a	.
=2	=2
8a]	Bb
4f	.
16dd	.
16dd	.
4cc	C
4r	.
=3	=3
4dd	F
8.cc	.
16dd	.
4cc	.
16dd	.
8cc	.
[16a	.
=4	=4
8a]	Bb
4f	.
16dd	.
16dd	.
4cc	C
4r	.
=5	=5
8r	Dm
8a	.
16dd	.
8cc	.
16a	.
16dd	C
8.cc	.
4r	.
=6	=6
16r	Dm
8a	.
16a	.
16dd	.
16cc	.
8a	.
[4g	G
16g]	.
8r	.
16g	.
=7	=7
4cc	C
4cc	.
16b-	Bb
16b-	.
4.r	.
=8	=8
4cc	C
4cc	.
16b-	Bb
16b-	.
4.r	.
*-	*-